X:4
T:Lark in the Morning, The
R:jig
D:Highland Sun: Celtic Crossover
M:6/8
L:1/8
K:D
|:"D"AFA AFA|"G"BGB BGB|"D"AFA AFA|"G"fed BdB|
"D"AFA AFA|"G"BGB BAB|"D"def "A"afe|"D"fed "G"BdB:|
|:"D"def a2a|"G"baf "A"afe|"D"def "G"afe|"D"fed "G"BAB|
"D"def a2a|"G"baf "A"a2f|"G"~g3 "D"faf|"G"edB "A"BAB:|
|:"D"d2f fef|"G"fef fef|"D"d2f fef|"G"edB BAB|
"D"d2f fef|"G"fef "D"fed|"G"~g3 "D"faf|1 "G"edB "A"BAB:|2 "G"edB "A"BAF|
|:"D"Add fdd|"G"ede fdB|"D"Add fdd|"G"edB "A"BAF|
"D"Add fdd|"G"ede "D"fed|"G"~g3 "D"faf|"G"edB "A"BAF:|"D"D6||
